config/dist/config-sdr22-45643084.ocio
# OpenColorIO configuration file for Blender
#
# ACEScg and ACES2065-1 spaces using OpenColorIO's BuiltinTransform
# Camera input color space adapted from OpenColorIO-Config-ACES configs.
#
# Filmic Dynamic Range LUT configuration crafted by Troy James Sobotka with
# special thanks and feedback from Guillermo, Claudio Rocha, Bassam Kurdali,
# Eugenio Pignataro, Henri Hebeisen, Jason Clarke, Haarm-Peter Duiker, Thomas
# Mansencal, and Timothy Lottes.
#
# Based on original AgX by Troy Sobotka: https://github.com/sobotka/AgX https://github.com/sobotka/SB2383-Configuration-Generation
# Further Developed by Zijun Eary Zhou法纤净, Mark Faderbauer, and Sakari Kapanen
# Repository for this version: https://github.com/EaryChow/AgX
#
# See ocio-license.txt for details.

ocio_profile_version: 2.4

search_path: "icc:luts:filmic"
strictparsing: true
luma: [0.2126, 0.7152, 0.0722]

description: RRT version ut33

file_rules:
  - !<Rule> {name: Default, colorspace: Rec.709 Gamma 2.2}

roles:
  reference: ACES2065-1

  # Internal scene linear space
  scene_linear: Linear Rec.709
  rendering: Linear Rec.709

  # Default color space for byte image
  default_byte: sRGB

  # Default color space for float images
  default_float: Linear Rec.709

  # Default color space sequencer is working in
  default_sequencer: sRGB

  # Distribution of colors in color picker
  color_picking: sRGB

  # Non-color data
  data: Non-Color

  # For interop between configs, and to determine XYZ for rendering
  aces_interchange: ACES2065-1
  cie_xyz_d65_interchange: Linear CIE-XYZ D65

  # Specified by OCIO, not used in Blender
  color_timing: AgX Log
  compositing_log: AgX Log
  default: Rec.709 Gamma 2.2
  matte_paint: Linear Rec.709
  texture_paint: Linear Rec.709

displays:
  sRGB:
    - !<View> {name: Standard, view_transform: Standard, display_colorspace: sRGB}
    - !<View> {name: Raw, colorspace: Non-Color}
  Rec.1886:
    - !<View> {name: Standard, view_transform: Standard, display_colorspace: Rec.1886}
    - !<View> {name: Raw, colorspace: Non-Color}
  Display P3:
    - !<View> {name: Standard, view_transform: Standard, display_colorspace: Display P3}
    - !<View> {name: Raw, colorspace: Non-Color}
  Rec.2020:
    - !<View> {name: Standard, view_transform: Standard, display_colorspace: Rec.2020}
    - !<View> {name: Raw, colorspace: Non-Color}
  Rec.709 Gamma 2.2:
    - !<View> {name: Standard, view_transform: Standard, display_colorspace: Rec.709 Gamma 2.2}
    - !<View> {name: Raw, colorspace: Non-Color}
  macOS View Only:
    - !<View> {name: Standard, view_transform: Standard, display_colorspace: macOS View Only}
    - !<View> {name: Raw, colorspace: Non-Color}
  macOS Desktop View:
    - !<View> {name: Standard, view_transform: Standard, display_colorspace: macOS Desktop View}
    - !<View> {name: Raw, colorspace: Non-Color}
  macOS Video View:
    - !<View> {name: Standard, view_transform: Standard, display_colorspace: macOS Video View}
    - !<View> {name: Raw, colorspace: Non-Color}
  Windows Desktop View:
    - !<View> {name: Standard, view_transform: Standard, display_colorspace: Windows Desktop View}
    - !<View> {name: Raw, colorspace: Non-Color}
  Windows Video View:
    - !<View> {name: Standard, view_transform: Standard, display_colorspace: Windows Video View}
    - !<View> {name: Raw, colorspace: Non-Color}
active_displays: [sRGB, Rec.1886, Display P3, Rec.2020, Rec.709 Gamma 2.2, macOS View Only, macOS Desktop View, macOS Video View, Windows Desktop View, Windows Video View]
active_views: [Standard, Raw]
inactive_colorspaces: [Linear CIE-XYZ D65, Linear CIE-XYZ E, Luminance Compensation Rec.2020, AgX Log, Filmic Log, Linear FilmLight E-Gamut, Camera Rec.709, Gamma 1.8 Encoded Rec.709, Gamma 2.2 Encoded Rec.709, Gamma 2.4 Encoded Rec.709, sRGB Encoded P3-D65, Gamma 2.2 Encoded AdobeRGB, sRGB Encoded AP1, Gamma 2.2 Encoded AP1]

display_colorspaces:
  - !<ColorSpace>
    name: sRGB
    aliases: [srgb_rec709_display, srgb_rec709_scene, sRGB I-D65, srgb_display, sRGB - Display, Utility - sRGB - Texture, sRGB - Texture, srgb_tx, srgb_texture, Input - Generic - sRGB - Texture, "sRGB Display: 2.2 Gamma - Rec.709"]
    family: Display
    equalitygroup: ""
    bitdepth: 32f
    description: |
      sRGB IEC 61966-2-1 piecewise encoding, Rec.709 primaries
      Self-contained (XYZ-D65 matrix + curve): no nested reference crossing, so the SDR
      family's default_view_transform bridge applies exactly once.
    isdata: false
    encoding: sdr-video
    from_display_reference: !<GroupTransform>
      children:
        - !<MatrixTransform> {matrix: [3.2409699, -1.5373832, -0.4986108, 0, -0.9692436, 1.8759675, 0.0415551, 0, 0.0556301, -0.2039770, 1.0569715, 0, 0, 0, 0, 1]}
        - !<ExponentWithLinearTransform> {gamma: 2.4, offset: 0.055, direction: inverse}

  - !<ColorSpace>
    name: Rec.1886
    aliases: [g24_rec709_display, BT.1886, BT.1886 2.4, BT.1886 EOTF, BT.1886 I-D65, Rec.1886 / Rec.709 Video - Display, rec1886_rec709_display, rec1886_rec709_video_display, Rec.1886 Rec.709 - Display, "Rec1886: 2.4 Gamma - Rec.709"]
    family: Display
    equalitygroup: ""
    bitdepth: 32f
    description: |
      BT.1886 (pure 2.4 EOTF), Rec.709 primaries — broadcast video
      Self-contained (XYZ-D65 matrix + curve): no nested reference crossing, so the SDR
      family's default_view_transform bridge applies exactly once.
    isdata: false
    encoding: sdr-video
    from_display_reference: !<GroupTransform>
      children:
        - !<MatrixTransform> {matrix: [3.2409699, -1.5373832, -0.4986108, 0, -0.9692436, 1.8759675, 0.0415551, 0, 0.0556301, -0.2039770, 1.0569715, 0, 0, 0, 0, 1]}
        - !<ExponentTransform> {value: 2.4, direction: inverse}

  - !<ColorSpace>
    name: Display P3
    aliases: [srgb_p3d65_display, Display P3 2.2, Display P3 I-D65, P3-D65 - Display, p3_d65_display, p3d65_display, AppleP3 sRGB OETF]
    family: Display
    equalitygroup: ""
    bitdepth: 32f
    description: |
      Apple Display P3: P3-D65 primaries, sRGB piecewise curve
      Self-contained (XYZ-D65 matrix + curve): no nested reference crossing, so the SDR
      family's default_view_transform bridge applies exactly once.
    isdata: false
    encoding: sdr-video
    from_display_reference: !<GroupTransform>
      children:
        - !<MatrixTransform> {matrix: [2.4934969, -0.9313836, -0.4027108, 0, -0.8294890, 1.7626641, 0.0236247, 0, 0.0358458, -0.0761724, 0.9568845, 0, 0, 0, 0, 1]}
        - !<ExponentWithLinearTransform> {gamma: 2.4, offset: 0.055, direction: inverse}

  - !<ColorSpace>
    name: Rec.2020
    aliases: [g24_rec2020_display, blender:g24_rec2020_display, BT.2020, BT.2020 2.4, BT.2020 I-D65, Rec.1886 / Rec.2020 Video - Display, rec1886_rec2020_display, rec1886_rec2020_video_display, Rec.1886 Rec.2020 - Display, "Rec1886: 2.4 Gamma - Rec.2020"]
    family: Display
    equalitygroup: ""
    bitdepth: 32f
    description: |
      BT.2020 primaries, pure 2.4 EOTF
      Self-contained (XYZ-D65 matrix + curve): no nested reference crossing, so the SDR
      family's default_view_transform bridge applies exactly once.
    isdata: false
    encoding: sdr-video
    from_display_reference: !<GroupTransform>
      children:
        - !<MatrixTransform> {matrix: [1.7166512, -0.3556708, -0.2533663, 0, -0.6666844, 1.6164812, 0.0157685, 0, 0.0176399, -0.0427706, 0.9421031, 0, 0, 0, 0, 1]}
        - !<ExponentTransform> {value: 2.4, direction: inverse}

  - !<ColorSpace>
    name: Rec.709 Gamma 2.2
    aliases: [g22_rec709_display, Gamma 2.2 Rec.709 - Display]
    family: Display
    equalitygroup: ""
    bitdepth: 32f
    description: |
      Rec.709 primaries, pure 2.2 EOTF — the SDR family's WORKING space (what a desktop display does;
      a naked render carries these values under a BT.709 tag).
      Self-contained (XYZ-D65 matrix + curve): no nested reference crossing, so the SDR
      family's default_view_transform bridge applies exactly once.
    isdata: false
    encoding: sdr-video
    from_display_reference: !<GroupTransform>
      children:
        - !<MatrixTransform> {matrix: [3.2409699, -1.5373832, -0.4986108, 0, -0.9692436, 1.8759675, 0.0415551, 0, 0.0556301, -0.2039770, 1.0569715, 0, 0, 0, 0, 1]}
        - !<ExponentTransform> {value: 2.2, direction: inverse}

  - !<ColorSpace>
    name: macOS View Only
    aliases: [UnionMacOS]
    family: Display
    equalitygroup: ""
    bitdepth: 32f
    description: |
      P3-D65 primaries, pure 2.2 EOTF — AE's macOS viewport surface (P3-tagged, EDR off). VIEW ONLY (legacy name).
      Self-contained (XYZ-D65 matrix + curve): no nested reference crossing, so the SDR
      family's default_view_transform bridge applies exactly once.
    isdata: false
    encoding: sdr-video
    from_display_reference: !<GroupTransform>
      children:
        - !<MatrixTransform> {matrix: [2.4934969, -0.9313836, -0.4027108, 0, -0.8294890, 1.7626641, 0.0236247, 0, 0.0358458, -0.0761724, 0.9568845, 0, 0, 0, 0, 1]}
        - !<ExponentTransform> {value: 2.2, direction: inverse}

  - !<ColorSpace>
    name: macOS Desktop View
    aliases: [macOS Desktop View Only]
    family: Display
    equalitygroup: ""
    bitdepth: 32f
    description: |
      P3-D65 primaries, pure 2.2 EOTF — AE's macOS viewport surface (P3-tagged, EDR off). VIEW ONLY.
      Self-contained (XYZ-D65 matrix + curve): no nested reference crossing, so the SDR
      family's default_view_transform bridge applies exactly once.
    isdata: false
    encoding: sdr-video
    from_display_reference: !<GroupTransform>
      children:
        - !<MatrixTransform> {matrix: [2.4934969, -0.9313836, -0.4027108, 0, -0.8294890, 1.7626641, 0.0236247, 0, 0.0358458, -0.0761724, 0.9568845, 0, 0, 0, 0, 1]}
        - !<ExponentTransform> {value: 2.2, direction: inverse}

  - !<ColorSpace>
    name: macOS Video View
    aliases: [macOS Video View Only]
    family: Display
    equalitygroup: ""
    bitdepth: 32f
    description: |
      macOS Desktop View preceded by a BT.1886 (2.4) encode + desktop sRGB decode —
      predicts how a Rec.709 video delivery plays through a desktop pipeline (QuickTime-style). VIEW ONLY.
    isdata: false
    encoding: sdr-video
    from_display_reference: !<GroupTransform>
      children:
        - !<MatrixTransform> {matrix: [3.2409699, -1.5373832, -0.4986108, 0, -0.9692436, 1.8759675, 0.0415551, 0, 0.0556301, -0.2039770, 1.0569715, 0, 0, 0, 0, 1]}
        - !<ExponentTransform> {value: 2.4, direction: inverse}
        - !<ExponentWithLinearTransform> {gamma: 2.4, offset: 0.055}
        - !<MatrixTransform> {matrix: [3.2409699, -1.5373832, -0.4986108, 0, -0.9692436, 1.8759675, 0.0415551, 0, 0.0556301, -0.2039770, 1.0569715, 0, 0, 0, 0, 1], direction: inverse}
        - !<MatrixTransform> {matrix: [2.4934969, -0.9313836, -0.4027108, 0, -0.8294890, 1.7626641, 0.0236247, 0, 0.0358458, -0.0761724, 0.9568845, 0, 0, 0, 0, 1]}
        - !<ExponentTransform> {value: 2.2, direction: inverse}

  - !<ColorSpace>
    name: Windows Desktop View
    aliases: [Windows Desktop View Only]
    family: Display
    equalitygroup: ""
    bitdepth: 32f
    description: |
      sRGB — a Windows desktop surface. View target only.
      Self-contained (XYZ-D65 matrix + curve): no nested reference crossing, so the SDR
      family's default_view_transform bridge applies exactly once.
    isdata: false
    encoding: sdr-video
    from_display_reference: !<GroupTransform>
      children:
        - !<MatrixTransform> {matrix: [3.2409699, -1.5373832, -0.4986108, 0, -0.9692436, 1.8759675, 0.0415551, 0, 0.0556301, -0.2039770, 1.0569715, 0, 0, 0, 0, 1]}
        - !<ExponentWithLinearTransform> {gamma: 2.4, offset: 0.055, direction: inverse}

  - !<ColorSpace>
    name: Windows Video View
    aliases: [Windows Video View Only]
    family: Display
    equalitygroup: ""
    bitdepth: 32f
    description: |
      BT.1886 (2.4) — a Rec.709 video delivery on a 2.4 display. View target only.
      Self-contained (XYZ-D65 matrix + curve): no nested reference crossing, so the SDR
      family's default_view_transform bridge applies exactly once.
    isdata: false
    encoding: sdr-video
    from_display_reference: !<GroupTransform>
      children:
        - !<MatrixTransform> {matrix: [3.2409699, -1.5373832, -0.4986108, 0, -0.9692436, 1.8759675, 0.0415551, 0, 0.0556301, -0.2039770, 1.0569715, 0, 0, 0, 0, 1]}
        - !<ExponentTransform> {value: 2.4, direction: inverse}

  - !<ColorSpace>
    name: Desktop Render
    family: Display
    equalitygroup: ""
    bitdepth: 32f
    description: |
      sRGB values — render target for desktop / web deliveries.
      Self-contained (XYZ-D65 matrix + curve): no nested reference crossing, so the SDR
      family's default_view_transform bridge applies exactly once.
    isdata: false
    encoding: sdr-video
    from_display_reference: !<GroupTransform>
      children:
        - !<MatrixTransform> {matrix: [3.2409699, -1.5373832, -0.4986108, 0, -0.9692436, 1.8759675, 0.0415551, 0, 0.0556301, -0.2039770, 1.0569715, 0, 0, 0, 0, 1]}
        - !<ExponentWithLinearTransform> {gamma: 2.4, offset: 0.055, direction: inverse}

  - !<ColorSpace>
    name: Video Render
    family: Display
    equalitygroup: ""
    bitdepth: 32f
    description: |
      BT.1886 (2.4) values — render target for video deliveries.
      Self-contained (XYZ-D65 matrix + curve): no nested reference crossing, so the SDR
      family's default_view_transform bridge applies exactly once.
    isdata: false
    encoding: sdr-video
    from_display_reference: !<GroupTransform>
      children:
        - !<MatrixTransform> {matrix: [3.2409699, -1.5373832, -0.4986108, 0, -0.9692436, 1.8759675, 0.0415551, 0, 0.0556301, -0.2039770, 1.0569715, 0, 0, 0, 0, 1]}
        - !<ExponentTransform> {value: 2.4, direction: inverse}

  - !<ColorSpace>
    name: Linear CIE-XYZ D65
    aliases: [lin_ciexyzd65_scene, cie_xyz_d65, CIE-XYZ-D65, XYZ, Linear CIE-XYZ I-D65]
    family: Linear
    equalitygroup:
    bitdepth: 32f
    description: |
      1931 CIE XYZ with adapted illuminant D65 white point
    isdata: false
    encoding: display-linear

default_view_transform: Standard

view_transforms:
  - !<ViewTransform>
    name: Standard
    description: Apply only the display's standard transform without additional mappings
    from_scene_reference: !<BuiltinTransform> {style: UTILITY - ACES-AP0_to_CIE-XYZ-D65_BFD}

colorspaces:
  - !<ColorSpace>
    name: Camera Rec.709
    aliases: [camera_rec709, Utility - Rec.709 - Camera, rec709_camera]
    family: Utility/ITU
    equalitygroup: ""
    bitdepth: 32f
    description: |
      Rec.709 camera OETF, Rec.709 primaries, D65 — scene-referred capture encoding (from ACES 1.3
      Studio; distinct from BT.1886/Gamma 2.4 display encodings).
    isdata: false
    encoding: sdr-video
    from_scene_reference: !<GroupTransform>
      name: AP0 to Camera Rec.709
      children:
        - !<MatrixTransform> {matrix: [2.52168618674388, -1.13413098823972, -0.387555198504164, 0, -0.276479914229922, 1.37271908766826, -0.096239173438334, 0, -0.0153780649660342, -0.152975335867399, 1.16835340083343, 0, 0, 0, 0, 1]}
        - !<ExponentWithLinearTransform> {gamma: 2.22222222222222, offset: 0.099, direction: inverse}

  - !<ColorSpace>
    name: REDLogFilm REDWideGamutRGB
    aliases: [redlogfilm_rwg, REDLogFilm RWG, Input - RED - REDLogFilm - REDWideGamutRGB]
    family: Input/RED
    equalitygroup: ""
    bitdepth: 32f
    description: |
      RED LogFilm curve with RED Wide Gamut RGB primaries (legacy RED log; OCIO builtin).
    isdata: false
    encoding: log
    to_scene_reference: !<BuiltinTransform> {style: RED_REDLOGFILM-RWG_to_ACES2065-1}

  - !<ColorSpace>
    name: Linear CIE-XYZ E
    aliases: ["FilmLight: Linear - XYZ", Linear CIE-XYZ I-E]
    family: Linear
    equalitygroup:
    bitdepth: 32f
    description: |
      1931 CIE XYZ standard with assumed illuminant E white point
    isdata: false
    from_scene_reference: !<GroupTransform>
      children:
        - !<BuiltinTransform> {style: UTILITY - ACES-AP0_to_CIE-XYZ-D65_BFD}
        - !<FileTransform> {src: xyz_E_to_D65.spimtx, interpolation: linear, direction: inverse}

  - !<ColorSpace>
    name: Linear Rec.709
    aliases: [lin_rec709_scene, Linear, Linear BT.709, Linear BT.709 I-D65, Linear Tristimulus, linrec709, Utility - Linear - sRGB, Utility - Linear - Rec.709, lin_srgb, Linear Rec.709 (sRGB), lin_rec709_srgb, lin_rec709, lin_srgb, "CGI: Linear - Rec.709"]
    family: Linear
    equalitygroup:
    bitdepth: 32f
    description: |
      Linear BT.709 with illuminant D65 white point
    isdata: false
    from_scene_reference: !<MatrixTransform> {matrix: [2.521686077, -1.134130955, -0.3875552416, 0, -0.2764798701, 1.372719049, -0.09623912722, 0, -0.01537805982, -0.1529753655, 1.168353438, 0, 0, 0, 0, 1]}

  - !<ColorSpace>
    name: Linear DCI-P3 D65
    aliases: [lin_p3d65_scene, Linear DCI-P3 I-D65, Linear P3-D65, lin_p3d65, Utility - Linear - P3-D65, Apple DCI-P3 D65]
    family: Linear
    equalitygroup:
    bitdepth: 32f
    description: |
      Linear DCI-P3 with illuminant D65 white point
    isdata: false
    from_scene_reference: !<MatrixTransform> {matrix: [2.024905205, -0.6890697479, -0.3358355463, 0, -0.1835970432, 1.289506197, -0.1059091613, 0, 0.009058529511, -0.05927969143, 1.050221086, 0, 0, 0, 0, 1]}

  - !<ColorSpace>
    name: Linear Rec.2020
    aliases: [lin_rec2020_scene, Linear BT.2020 I-D65, Linear BT.2020, lin_rec2020, Utility - Linear - Rec.2020]
    family: Linear
    equalitygroup:
    bitdepth: 32f
    description: |
      Linear BT.2020 with illuminant D65 white point
    isdata: false
    from_scene_reference: !<MatrixTransform> {matrix: [1.490409493, -0.2661709189, -0.2242386192, 0, -0.08016755432, 1.182167053, -0.1019996703, 0, 0.003227675566, -0.03477646783, 1.031548858, 0, 0, 0, 0, 1]}

  - !<ColorSpace>
    name: Linear Adobe RGB
    aliases: [lin_adobergb_scene, lin_adobergb, Linear AdobeRGB, Utility - Linear - Adobe RGB]
    family: Linear
    equalitygroup:
    bitdepth: 32f
    description: |
      Linear Adobe RGB (1998) with illuminant D65 white point.
      For use with scene-referred textures.
    isdata: false
    from_scene_reference: !<MatrixTransform> {matrix: [1.72456031681181, -0.419993594161504, -0.304566722650304, 0, -0.276479914229922, 1.37271908766826, -0.0962391734383339, 0, -0.0261255258256649, -0.0901747806551909, 1.11630030648086, 0, 0, 0, 0, 1]}

  - !<ColorSpace>
    name: ACES2065-1
    aliases: [lin_ap0_scene, lin_ap0, Linear ACES, aces2065_1, ACES - ACES2065-1, "ACES: Linear - AP0"]
    family: Linear
    equalitygroup:
    bitdepth: 32f
    description: |
      Linear AP0 with ACES white point
    isdata: false

  - !<ColorSpace>
    name: ACEScg
    aliases: [lin_ap1_scene, lin_ap1, Linear ACEScg, ACES - ACEScg, "ACEScg: Linear - AP1"]
    family: Linear
    equalitygroup:
    bitdepth: 32f
    description: |
      Linear AP1 with ACES white point
    isdata: false
    to_scene_reference: !<BuiltinTransform> {style: ACEScg_to_ACES2065-1}

  - !<ColorSpace>
    name: Linear FilmLight E-Gamut
    aliases: [Linear E-Gamut I-D65, "FilmLight: Linear - E-Gamut"]
    family: Linear
    equalitygroup:
    bitdepth: 32f
    description: |
      Linear E-Gamut with illuminant D65 white point
    isdata: false
    from_scene_reference: !<MatrixTransform> {matrix: [1.324202895, -0.236799255, -0.0874036774, 0, -0.02774209902, 0.9744444489, 0.05329766497, 0, 0.1079039574, 0.03378080577, 0.8583151698, 0, 0, 0, 0, 1]}
  
  - !<ColorSpace>
    name: Apple Log
    aliases: [apple_log, ocio:applelog_rec2020_scene]
    family: Input/Apple
    equalitygroup:
    bitdepth: 32f
    description: |
      Apple camera input space using Apple Log transfer function and Rec.2020 primaries.
    isdata: false
    encoding: log
    allocation: uniform
    to_scene_reference: !<BuiltinTransform> {style: APPLE_LOG_to_ACES2065-1}

  - !<ColorSpace>
    name: Apple Log 2
    aliases: [apple_log_2, ocio:applelog_applewg_scene]
    family: Input/Apple
    equalitygroup:
    bitdepth: 32f
    description: |
      Apple camera input space using Apple Log transfer function and Apple Wide Gamut primaries.
    isdata: false
    encoding: log
    allocation: uniform
    to_scene_reference: !<GroupTransform>
      children:
        - !<BuiltinTransform> {style: CURVE - APPLE_LOG_to_LINEAR}
        - !<MatrixTransform> {matrix: [0.694961049318096, 0.241405268785364, 0.06363368189654, 0, 0.0473627464149325, 1.00429592505428, -0.0516586714692158, 0, -0.021989789359883, -0.0289891049714743, 1.05097889433136, 0, 0, 0, 0, 1]}

  - !<ColorSpace>
    name: Linear Apple Wide Gamut
    aliases: [lin_apple_wide_gamut, lin_applewg, ocio:linear_applewg_scene]
    family: Input/Apple
    equalitygroup:
    bitdepth: 32f
    description: |
      Apple camera input space using linear Apple Wide Gamut primaries.
    isdata: false
    encoding: scene-linear
    allocation: uniform
    to_scene_reference: !<MatrixTransform> {matrix: [0.694961049318096, 0.241405268785364, 0.06363368189654, 0, 0.0473627464149325, 1.00429592505428, -0.0516586714692158, 0, -0.021989789359883, -0.0289891049714743, 1.05097889433136, 0, 0, 0, 0, 1]}

  - !<ColorSpace>
    name: ARRI LogC3 (EI800)
    aliases: [arri_logc3_ei800, logc3ei800_alexawide, ocio:arrilogc3_awg3_scene]
    family: Input/ARRI
    equalitygroup:
    bitdepth: 32f
    description: |
      ARRI camera input space using LogC3 (EI800) transfer function and ARRI Wide Gamut primaries.
    isdata: false
    encoding: log
    allocation: uniform
    to_scene_reference: !<GroupTransform>
      children:
        - !<LogCameraTransform> {base: 10, log_side_slope: 0.247189638318671, log_side_offset: 0.385536998692443, lin_side_slope: 5.55555555555556, lin_side_offset: 0.0522722750251688, lin_side_break: 0.0105909904954696, direction: inverse}
        - !<MatrixTransform> {matrix: [0.680205505106279, 0.236136601606481, 0.0836578932872398, 0, 0.0854149797421404, 1.01747087860704, -0.102885858349182, 0, 0.00205652166929683, -0.0625625003847921, 1.06050597871549, 0, 0, 0, 0, 1]}

  - !<ColorSpace>
    name: Linear ARRI Wide Gamut 3
    aliases: [lin_arri_wide_gamut_3, lin_alexawide, ocio:lin_awg3_scene]
    family: Input/ARRI
    equalitygroup:
    bitdepth: 32f
    description: |
      ARRI camera input space using linear ARRI Wide Gamut primaries.
    isdata: false
    encoding: scene-linear
    allocation: uniform
    to_scene_reference: !<MatrixTransform> {matrix: [0.680205505106279, 0.236136601606481, 0.0836578932872398, 0, 0.0854149797421404, 1.01747087860704, -0.102885858349182, 0, 0.00205652166929683, -0.0625625003847921, 1.06050597871549, 0, 0, 0, 0, 1]}

  - !<ColorSpace>
    name: ARRI LogC4
    aliases: [arri_logc4, ocio:arrilogc4_awg4_scene]
    family: Input/ARRI
    equalitygroup:
    bitdepth: 32f
    description: |
      ARRI camera input space using LogC4 transfer function and ARRI Wide Gamut 4 primaries.
    isdata: false
    encoding: log
    allocation: uniform
    to_scene_reference: !<GroupTransform>
      children:
        - !<LogCameraTransform> {log_side_slope: 0.0647954196341293, log_side_offset: -0.295908392682586, lin_side_slope: 2231.82630906769, lin_side_offset: 64, lin_side_break: -0.0180569961199113, direction: inverse}
        - !<MatrixTransform> {matrix: [0.750957362824734, 0.144422786709757, 0.104619850465509, 0, 0.000821837079380207, 1.007397584885, -0.00821942196438358, 0, -0.000499952143533471, -0.000854177231436971, 1.00135412937497, 0, 0, 0, 0, 1]}

  - !<ColorSpace>
    name: Linear ARRI Wide Gamut 4
    aliases: [lin_arri_wide_gamut_4, lin_awg4, ocio:lin_awg4_scene]
    family: Input/ARRI
    equalitygroup:
    bitdepth: 32f
    description: |
      ARRI camera input space using linear ARRI Wide Gamut 4 primaries.
    isdata: false
    encoding: scene-linear
    allocation: uniform
    to_scene_reference: !<GroupTransform>
      children:
