config/dist/config-acescg-neutral.ocio
# OpenColorIO configuration file for Blender
#
# ACEScg and ACES2065-1 spaces using OpenColorIO's BuiltinTransform
# Camera input color space adapted from OpenColorIO-Config-ACES configs.
#
# Filmic Dynamic Range LUT configuration crafted by Troy James Sobotka with
# special thanks and feedback from Guillermo, Claudio Rocha, Bassam Kurdali,
# Eugenio Pignataro, Henri Hebeisen, Jason Clarke, Haarm-Peter Duiker, Thomas
# Mansencal, and Timothy Lottes.
#
# Based on original AgX by Troy Sobotka: https://github.com/sobotka/AgX https://github.com/sobotka/SB2383-Configuration-Generation
# Further Developed by Zijun Eary Zhou法纤净, Mark Faderbauer, and Sakari Kapanen
# Repository for this version: https://github.com/EaryChow/AgX
#
# See ocio-license.txt for details.

ocio_profile_version: 2.4

search_path: "icc:luts:filmic"
strictparsing: true
luma: [0.2126, 0.7152, 0.0722]

description: RRT version ut33

file_rules:
  - !<Rule> {name: Default, colorspace: ACEScg}

roles:
  reference: ACES2065-1

  # Internal scene linear space
  scene_linear: ACEScg
  rendering: ACEScg

  # NEUTRALIZER TEST (minColor lean-v3): default_* pointed at scene_linear so AE does NOT
  # transform UNASSIGNED footage on the way in — it should arrive as raw values LABELED
  # scene_linear (ACEScg), letting our self-contained effect own all colour. Compare a pixel
  # read against the stock config (default_byte: sRGB, default_float: Linear Rec.709).
  # Default color space for byte image
  default_byte: ACEScg

  # Default color space for float images
  default_float: ACEScg

  # Default color space sequencer is working in
  default_sequencer: sRGB

  # Distribution of colors in color picker
  color_picking: sRGB

  # Non-color data
  data: Non-Color

  # For interop between configs, and to determine XYZ for rendering
  aces_interchange: ACES2065-1
  cie_xyz_d65_interchange: Linear CIE-XYZ D65

  # Specified by OCIO, not used in Blender
  color_timing: AgX Log
  compositing_log: AgX Log
  default: ACEScg
  matte_paint: Linear Rec.709
  texture_paint: Linear Rec.709

displays:
  sRGB:
    - !<View> {name: Standard, view_transform: Standard, display_colorspace: sRGB}
    - !<View> {name: Standard 1886 Sim, view_transform: Standard 1886 Sim, display_colorspace: sRGB}
    - !<View> {name: ACES 1.3, view_transform: ACES 1.3 Rec.1886, display_colorspace: sRGB}
    - !<View> {name: ACES 2.0, view_transform: ACES 2.0 Rec.1886, display_colorspace: sRGB}
    - !<View> {name: Khronos PBR Neutral, view_transform: Khronos PBR Neutral sRGB, display_colorspace: sRGB}
    - !<View> {name: AgX, view_transform: AgX Base Rec.1886, display_colorspace: sRGB}
    - !<View> {name: Filmic, view_transform: Filmic sRGB, display_colorspace: sRGB}
    - !<View> {name: Filmic Log, colorspace: Filmic Log}
    - !<View> {name: False Color, view_transform: AgX False Color Rec.709, display_colorspace: sRGB}
    - !<View> {name: Raw, colorspace: Non-Color}
  Display P3:
    - !<View> {name: Standard, view_transform: Standard, display_colorspace: Display P3}
    - !<View> {name: Standard 1886 Sim, view_transform: Standard 1886 Sim, display_colorspace: Display P3}
    - !<View> {name: ACES 1.3, view_transform: ACES 1.3 Display P3, display_colorspace: Display P3}
    - !<View> {name: ACES 2.0, view_transform: ACES 2.0 Display P3, display_colorspace: Display P3}
    - !<View> {name: AgX, view_transform: AgX Base Display P3, display_colorspace: Display P3}
    - !<View> {name: False Color, view_transform: AgX False Color Rec.709, display_colorspace: Display P3}
    - !<View> {name: Raw, colorspace: Non-Color}
  Rec.1886:
    - !<View> {name: Standard, view_transform: Standard, display_colorspace: Rec.1886}
    - !<View> {name: Standard 1886 Sim, view_transform: Standard 1886 Sim, display_colorspace: Rec.1886}
    - !<View> {name: ACES 1.3, view_transform: ACES 1.3 Rec.1886, display_colorspace: Rec.1886}
    - !<View> {name: ACES 2.0, view_transform: ACES 2.0 Rec.1886, display_colorspace: Rec.1886}
    - !<View> {name: AgX, view_transform: AgX Base Rec.1886, display_colorspace: Rec.1886}
    - !<View> {name: False Color, view_transform: AgX False Color Rec.709, display_colorspace: Rec.1886}
    - !<View> {name: Raw, colorspace: Non-Color}
  Rec.2020:
    - !<View> {name: Standard, view_transform: Standard, display_colorspace: Rec.2020}
    - !<View> {name: Standard 1886 Sim, view_transform: Standard 1886 Sim, display_colorspace: Rec.2020}
    - !<View> {name: ACES 1.3, view_transform: ACES 1.3 Display P3, display_colorspace: Rec.2020}
    - !<View> {name: ACES 2.0, view_transform: ACES 2.0 Display P3, display_colorspace: Rec.2020}
    - !<View> {name: AgX, view_transform: AgX Base Rec.2020, display_colorspace: Rec.2020}
    - !<View> {name: False Color, view_transform: AgX False Color Rec.709, display_colorspace: Rec.2020}
    - !<View> {name: Raw, colorspace: Non-Color}
  Rec.2100-PQ:
    - !<View> {name: Standard, view_transform: Standard, display_colorspace: Rec.2100-PQ}
    - !<View> {name: ACES 1.3 - HDR 1000 nits, view_transform: ACES 1.1 Rec.2100-PQ - HDR 1000 nits, display_colorspace: Rec.2100-PQ}
    - !<View> {name: ACES 1.3 - HDR 2000 nits, view_transform: ACES 1.1 Rec.2100-PQ - HDR 2000 nits, display_colorspace: Rec.2100-PQ}
    - !<View> {name: ACES 1.3 - HDR 4000 nits, view_transform: ACES 1.1 Rec.2100-PQ - HDR 4000 nits, display_colorspace: Rec.2100-PQ}
    - !<View> {name: ACES 1.3 - SDR, view_transform: ACES 1.3 Rec.1886, display_colorspace: Rec.2100-PQ}
    - !<View> {name: ACES 2.0 - HDR 500 nits, view_transform: ACES 2.0 Rec.2100-PQ - HDR 500 nits, display_colorspace: Rec.2100-PQ}
    - !<View> {name: ACES 2.0 - HDR 1000 nits, view_transform: ACES 2.0 Rec.2100-PQ - HDR 1000 nits, display_colorspace: Rec.2100-PQ}
    - !<View> {name: ACES 2.0 - HDR 2000 nits, view_transform: ACES 2.0 Rec.2100-PQ - HDR 2000 nits, display_colorspace: Rec.2100-PQ}
    - !<View> {name: ACES 2.0 - HDR 4000 nits, view_transform: ACES 2.0 Rec.2100-PQ - HDR 4000 nits, display_colorspace: Rec.2100-PQ}
    - !<View> {name: ACES 2.0 - SDR, view_transform: ACES 2.0 Rec.1886, display_colorspace: Rec.2100-PQ}
    - !<View> {name: AgX - HDR 1000 nits, view_transform: AgX Rec.2100-HLG - HDR 1000 nits (P3 D65), display_colorspace: Rec.2100-PQ}
    - !<View> {name: AgX - SDR, view_transform: AgX Base Display P3, display_colorspace: Rec.2100-PQ}
    - !<View> {name: False Color, view_transform: AgX False Color Rec.709, display_colorspace: Rec.2100-PQ}
    - !<View> {name: Raw, colorspace: Non-Color}
  Rec.2100-HLG:
    - !<View> {name: Standard, view_transform: Standard, display_colorspace: Rec.2100-HLG}
    - !<View> {name: ACES 1.3 - HDR 1000 nits, view_transform: ACES 1.1 Rec.2100-PQ - HDR 1000 nits, display_colorspace: Rec.2100-HLG}
    - !<View> {name: ACES 1.3 - SDR, view_transform: ACES 1.3 Rec.1886, display_colorspace: Rec.2100-HLG}
    - !<View> {name: ACES 2.0 - HDR 1000 nits, view_transform: ACES 2.0 Rec.2100-PQ - HDR 1000 nits, display_colorspace: Rec.2100-HLG}
    - !<View> {name: ACES 2.0 - SDR, view_transform: ACES 2.0 Rec.1886, display_colorspace: Rec.2100-HLG}
    - !<View> {name: AgX - HDR 1000 nits, view_transform: AgX Rec.2100-HLG - HDR 1000 nits (P3 D65), display_colorspace: Rec.2100-HLG}
    - !<View> {name: AgX - SDR, view_transform: AgX Base Display P3, display_colorspace: Rec.2100-HLG}
    - !<View> {name: False Color, view_transform: AgX False Color Rec.709, display_colorspace: Rec.2100-HLG}
    - !<View> {name: Raw, colorspace: Non-Color}
  Linear sRGB EDR:
    - !<View> {name: Standard (No Tonemap), view_transform: Standard, display_colorspace: Linear sRGB EDR}
    - !<View> {name: ACES 2.0 - HDR 500 nits, view_transform: ACES 2.0 Rec.2100-PQ - HDR 500 nits, display_colorspace: Linear sRGB EDR}
    - !<View> {name: ACES 2.0 - HDR 1000 nits, view_transform: ACES 2.0 Rec.2100-PQ - HDR 1000 nits, display_colorspace: Linear sRGB EDR}
    - !<View> {name: ACES 2.0 - HDR 2000 nits, view_transform: ACES 2.0 Rec.2100-PQ - HDR 2000 nits, display_colorspace: Linear sRGB EDR}
    - !<View> {name: ACES 2.0 - HDR 4000 nits, view_transform: ACES 2.0 Rec.2100-PQ - HDR 4000 nits, display_colorspace: Linear sRGB EDR}
    - !<View> {name: Raw, colorspace: Non-Color}
  Linear P3 EDR:
    - !<View> {name: Standard (No Tonemap), view_transform: Standard, display_colorspace: Linear P3 EDR}
    - !<View> {name: ACES 2.0 - HDR 500 nits, view_transform: ACES 2.0 Rec.2100-PQ - HDR 500 nits, display_colorspace: Linear P3 EDR}
    - !<View> {name: ACES 2.0 - HDR 1000 nits, view_transform: ACES 2.0 Rec.2100-PQ - HDR 1000 nits, display_colorspace: Linear P3 EDR}
    - !<View> {name: ACES 2.0 - HDR 2000 nits, view_transform: ACES 2.0 Rec.2100-PQ - HDR 2000 nits, display_colorspace: Linear P3 EDR}
    - !<View> {name: ACES 2.0 - HDR 4000 nits, view_transform: ACES 2.0 Rec.2100-PQ - HDR 4000 nits, display_colorspace: Linear P3 EDR}
    - !<View> {name: Raw, colorspace: Non-Color}
  macOS View Only:
    - !<View> {name: Standard, view_transform: Standard, display_colorspace: macOS View Only}
    - !<View> {name: Standard 1886 Sim, view_transform: Standard 1886 Sim, display_colorspace: macOS View Only}
    - !<View> {name: ACES 1.3, view_transform: ACES 1.3 Display P3, display_colorspace: macOS View Only}
    - !<View> {name: ACES 2.0, view_transform: ACES 2.0 Display P3, display_colorspace: macOS View Only}
    - !<View> {name: AgX, view_transform: AgX Base Display P3, display_colorspace: macOS View Only}
    - !<View> {name: False Color, view_transform: AgX False Color Rec.709, display_colorspace: macOS View Only}
    - !<View> {name: Raw, colorspace: Non-Color}
  macOS Desktop View:
    - !<View> {name: Standard, view_transform: Standard, display_colorspace: macOS Desktop View}
    - !<View> {name: Raw, colorspace: Non-Color}
  macOS Video View:
    - !<View> {name: Standard, view_transform: Standard, display_colorspace: macOS Video View}
    - !<View> {name: Raw, colorspace: Non-Color}
  Windows Desktop View:
    - !<View> {name: Standard, view_transform: Standard, display_colorspace: Windows Desktop View}
    - !<View> {name: Raw, colorspace: Non-Color}
  Windows Video View:
    - !<View> {name: Standard, view_transform: Standard, display_colorspace: Windows Video View}
    - !<View> {name: Raw, colorspace: Non-Color}
  Rec.709 Gamma 2.2:
    - !<View> {name: Standard, view_transform: Standard, display_colorspace: Rec.709 Gamma 2.2}
    - !<View> {name: Standard 1886 Sim, view_transform: Standard 1886 Sim, display_colorspace: Rec.709 Gamma 2.2}
    - !<View> {name: ACES 1.3, view_transform: ACES 1.3 Rec.1886, display_colorspace: Rec.709 Gamma 2.2}
    - !<View> {name: ACES 2.0, view_transform: ACES 2.0 Rec.1886, display_colorspace: Rec.709 Gamma 2.2}
    - !<View> {name: AgX, view_transform: AgX Base Rec.1886, display_colorspace: Rec.709 Gamma 2.2}
    - !<View> {name: False Color, view_transform: AgX False Color Rec.709, display_colorspace: Rec.709 Gamma 2.2}
    - !<View> {name: Raw, colorspace: Non-Color}
  P3-D65 PQ:
    - !<View> {name: Standard, view_transform: Standard, display_colorspace: P3-D65 PQ}
    - !<View> {name: ACES 2.0 - HDR 1000 nits, view_transform: ACES 2.0 Rec.2100-PQ - HDR 1000 nits, display_colorspace: P3-D65 PQ}
    - !<View> {name: Raw, colorspace: Non-Color}
active_displays: [sRGB, Display P3, Rec.1886, Rec.2020, Rec.2100-PQ, Rec.2100-HLG, Linear sRGB EDR, Linear P3 EDR, macOS View Only, macOS Desktop View, macOS Video View, Windows Desktop View, Windows Video View, Rec.709 Gamma 2.2, P3-D65 PQ]
active_views: [Standard, Standard (No Tonemap), ACES 1.3, ACES 1.3 - HDR 1000 nits, ACES 1.3 - HDR 2000 nits, ACES 1.3 - HDR 4000 nits, ACES 1.3 - SDR, ACES 2.0, ACES 2.0 - HDR 500 nits, ACES 2.0 - HDR 1000 nits, ACES 2.0 - HDR 2000 nits, ACES 2.0 - HDR 4000 nits, ACES 2.0 - SDR, Khronos PBR Neutral, AgX, AgX - HDR 1000 nits, AgX - SDR, Filmic, Filmic Log, False Color, Raw, Standard 1886 Sim]
inactive_colorspaces: [Luminance Compensation Rec.2020]

display_colorspaces:
  - !<ColorSpace>
    name: macOS View Only
    aliases: [UnionMacOS]
    family: Display
    equalitygroup: ""
    bitdepth: 32f
    description: |
      Display P3 primaries with pure 2.2 EOTF — matches Apple's effective display pipeline when the
      viewport surface is P3-tagged with EDR off (AE macOS viewport). VIEW ONLY: never a render target.
    isdata: false
    encoding: sdr-video
    from_display_reference: !<GroupTransform>
      children:
        - !<ColorSpaceTransform> {src: cie_xyz_d65_interchange, dst: Linear DCI-P3 D65}
        - !<ExponentTransform> {value: 2.2, direction: inverse}

  - !<ColorSpace>
    name: macOS Desktop View
    aliases: [macOS Desktop View Only]
    family: Display
    equalitygroup: ""
    bitdepth: 32f
    description: |
      P3-D65 primaries, pure 2.2 EOTF — AE's macOS viewport surface (P3-tagged, EDR off). VIEW ONLY.
      Self-contained (XYZ-D65 matrix + curve): no nested reference crossing, so the SDR
      family's default_view_transform bridge applies exactly once.
    isdata: false
    encoding: sdr-video
    from_display_reference: !<GroupTransform>
      children:
        - !<MatrixTransform> {matrix: [2.4934969, -0.9313836, -0.4027108, 0, -0.8294890, 1.7626641, 0.0236247, 0, 0.0358458, -0.0761724, 0.9568845, 0, 0, 0, 0, 1]}
        - !<ExponentTransform> {value: 2.2, direction: inverse}

  - !<ColorSpace>
    name: macOS Video View
    aliases: [macOS Video View Only]
    family: Display
    equalitygroup: ""
    bitdepth: 32f
    description: |
      macOS Desktop View preceded by a BT.1886 (2.4) encode + desktop sRGB decode —
      predicts how a Rec.709 video delivery plays through a desktop pipeline (QuickTime-style). VIEW ONLY.
    isdata: false
    encoding: sdr-video
    from_display_reference: !<GroupTransform>
      children:
        - !<MatrixTransform> {matrix: [3.2409699, -1.5373832, -0.4986108, 0, -0.9692436, 1.8759675, 0.0415551, 0, 0.0556301, -0.2039770, 1.0569715, 0, 0, 0, 0, 1]}
        - !<ExponentTransform> {value: 2.4, direction: inverse}
        - !<ExponentWithLinearTransform> {gamma: 2.4, offset: 0.055}
        - !<MatrixTransform> {matrix: [3.2409699, -1.5373832, -0.4986108, 0, -0.9692436, 1.8759675, 0.0415551, 0, 0.0556301, -0.2039770, 1.0569715, 0, 0, 0, 0, 1], direction: inverse}
        - !<MatrixTransform> {matrix: [2.4934969, -0.9313836, -0.4027108, 0, -0.8294890, 1.7626641, 0.0236247, 0, 0.0358458, -0.0761724, 0.9568845, 0, 0, 0, 0, 1]}
        - !<ExponentTransform> {value: 2.2, direction: inverse}

  - !<ColorSpace>
    name: Windows Desktop View
    aliases: [Windows Desktop View Only]
    family: Display
    equalitygroup: ""
    bitdepth: 32f
    description: |
      sRGB — a Windows desktop surface. View target only.
      Self-contained (XYZ-D65 matrix + curve): no nested reference crossing, so the SDR
      family's default_view_transform bridge applies exactly once.
    isdata: false
    encoding: sdr-video
    from_display_reference: !<GroupTransform>
      children:
        - !<MatrixTransform> {matrix: [3.2409699, -1.5373832, -0.4986108, 0, -0.9692436, 1.8759675, 0.0415551, 0, 0.0556301, -0.2039770, 1.0569715, 0, 0, 0, 0, 1]}
        - !<ExponentWithLinearTransform> {gamma: 2.4, offset: 0.055, direction: inverse}

  - !<ColorSpace>
    name: Windows Video View
    aliases: [Windows Video View Only]
    family: Display
    equalitygroup: ""
    bitdepth: 32f
    description: |
      BT.1886 (2.4) — a Rec.709 video delivery on a 2.4 display. View target only.
      Self-contained (XYZ-D65 matrix + curve): no nested reference crossing, so the SDR
      family's default_view_transform bridge applies exactly once.
    isdata: false
    encoding: sdr-video
    from_display_reference: !<GroupTransform>
      children:
        - !<MatrixTransform> {matrix: [3.2409699, -1.5373832, -0.4986108, 0, -0.9692436, 1.8759675, 0.0415551, 0, 0.0556301, -0.2039770, 1.0569715, 0, 0, 0, 0, 1]}
        - !<ExponentTransform> {value: 2.4, direction: inverse}

  - !<ColorSpace>
    name: Desktop Render
    family: Display
    equalitygroup: ""
    bitdepth: 32f
    description: |
      sRGB values — render target for desktop / web deliveries.
      Self-contained (XYZ-D65 matrix + curve): no nested reference crossing, so the SDR
      family's default_view_transform bridge applies exactly once.
    isdata: false
    encoding: sdr-video
    from_display_reference: !<GroupTransform>
      children:
        - !<MatrixTransform> {matrix: [3.2409699, -1.5373832, -0.4986108, 0, -0.9692436, 1.8759675, 0.0415551, 0, 0.0556301, -0.2039770, 1.0569715, 0, 0, 0, 0, 1]}
        - !<ExponentWithLinearTransform> {gamma: 2.4, offset: 0.055, direction: inverse}

  - !<ColorSpace>
    name: Video Render
    family: Display
    equalitygroup: ""
    bitdepth: 32f
    description: |
      BT.1886 (2.4) values — render target for video deliveries.
      Self-contained (XYZ-D65 matrix + curve): no nested reference crossing, so the SDR
      family's default_view_transform bridge applies exactly once.
    isdata: false
    encoding: sdr-video
    from_display_reference: !<GroupTransform>
      children:
        - !<MatrixTransform> {matrix: [3.2409699, -1.5373832, -0.4986108, 0, -0.9692436, 1.8759675, 0.0415551, 0, 0.0556301, -0.2039770, 1.0569715, 0, 0, 0, 0, 1]}
        - !<ExponentTransform> {value: 2.4, direction: inverse}

  - !<ColorSpace>
    name: Rec.709 Gamma 2.2
    aliases: [g22_rec709_display, Gamma 2.2 Rec.709 - Display]
    family: Display
    equalitygroup: ""
    bitdepth: 32f
    description: |
      Rec.709 primaries, pure 2.2 EOTF (ACES studio "Gamma 2.2 Rec.709 - Display"; the SDR family's working space).
      Self-contained (XYZ-D65 matrix + curve): no nested reference crossing, so the SDR
      family's default_view_transform bridge applies exactly once.
    isdata: false
    encoding: sdr-video
    from_display_reference: !<GroupTransform>
      children:
        - !<MatrixTransform> {matrix: [3.2409699, -1.5373832, -0.4986108, 0, -0.9692436, 1.8759675, 0.0415551, 0, 0.0556301, -0.2039770, 1.0569715, 0, 0, 0, 0, 1]}
        - !<ExponentTransform> {value: 2.2, direction: inverse}

  - !<ColorSpace>
    name: P3-D65 PQ
    aliases: [st2084_p3d65_display, ST2084-P3-D65 - Display, P3-D65 ST2084]
    family: Display
    equalitygroup: ""
    bitdepth: 32f
    description: |
      P3-D65 primaries with the ST 2084 (PQ) EOTF — HDR mastering display (ACES studio "ST2084-P3-D65 - Display").
    isdata: false
    encoding: hdr-video
    from_display_reference: !<BuiltinTransform> {style: DISPLAY - CIE-XYZ-D65_to_ST2084-P3-D65}

  - !<ColorSpace>
    name: Linear CIE-XYZ D65
    aliases: [lin_ciexyzd65_scene, cie_xyz_d65, CIE-XYZ-D65, XYZ, Linear CIE-XYZ I-D65]
    family: Linear
    equalitygroup:
    bitdepth: 32f
    description: |
      1931 CIE XYZ with adapted illuminant D65 white point
    isdata: false
    encoding: display-linear

  - !<ColorSpace>
    name: sRGB
    aliases: [srgb_rec709_display, srgb_rec709_scene, sRGB I-D65, srgb_display, sRGB - Display, Utility - sRGB - Texture, sRGB - Texture, srgb_tx, srgb_texture, Input - Generic - sRGB - Texture, "sRGB Display: 2.2 Gamma - Rec.709"]
    family: Display
    equalitygroup:
    bitdepth: 32f
    description: |
      sRGB IEC 61966-2-1 compound (piece-wise) encoding
    isdata: false
    from_display_reference: !<GroupTransform>
      children:
        - !<ColorSpaceTransform> {src: cie_xyz_d65_interchange, dst: Linear Rec.709}
        - !<ExponentWithLinearTransform> {gamma: 2.4, offset: 0.055, direction: inverse}

  - !<ColorSpace>
    name: Display P3
    aliases: [srgb_p3d65_display, Display P3 2.2, Display P3 I-D65, P3-D65 - Display, p3_d65_display, p3d65_display, AppleP3 sRGB OETF]
    family: Display
    equalitygroup:
    bitdepth: 32f
    description: |
      Apple's Display P3 with sRGB compound (piece-wise) encoding transfer function, common on Mac devices
    isdata: false
    from_display_reference: !<GroupTransform>
      children:
        - !<ColorSpaceTransform> {src: cie_xyz_d65_interchange, dst: Linear DCI-P3 D65}
        - !<ExponentWithLinearTransform> {gamma: 2.4, offset: 0.055, direction: inverse}

  - !<ColorSpace>
    name: Rec.1886
    aliases: [g24_rec709_display, BT.1886, BT.1886 2.4, BT.1886 EOTF, BT.1886 I-D65, Rec.1886 / Rec.709 Video - Display, rec1886_rec709_display, rec1886_rec709_video_display, Rec.1886 Rec.709 - Display, "Rec1886: 2.4 Gamma - Rec.709"]
    family: Display
    equalitygroup:
    bitdepth: 32f
    description: |
      BT.1886 2.4 Exponent EOTF Display, commonly used for TVs
    isdata: false
    from_display_reference: !<GroupTransform>
      children:
        - !<ColorSpaceTransform> {src: cie_xyz_d65_interchange, dst: Linear Rec.709}
        - !<ExponentTransform> {value: 2.4, direction: inverse}

  - !<ColorSpace>
    name: Rec.2020
    aliases: [g24_rec2020_display, blender:g24_rec2020_display, BT.2020, BT.2020 2.4, BT.2020 I-D65, Rec.1886 / Rec.2020 Video - Display, rec1886_rec2020_display, rec1886_rec2020_video_display, Rec.1886 Rec.2020 - Display, "Rec1886: 2.4 Gamma - Rec.2020"]
    family: Display
    equalitygroup:
    bitdepth: 32f
    description: |
      BT.2020 2.4 Exponent EOTF Display
    isdata: false
    from_display_reference: !<GroupTransform>
      children:
        - !<ColorSpaceTransform> {src: cie_xyz_d65_interchange, dst: Linear Rec.2020}
        - !<ExponentTransform> {value: 2.4, direction: inverse}

  - !<ColorSpace>
    name: Rec.2100-PQ
    aliases: [pq_rec2020_display, rec2100_pq_display, Rec.2100-PQ - Display]
    family: Display
    equalitygroup: ""
    bitdepth: 32f
    description: Rec.2100-PQ 10000 nits peak display with reference white at 100 nits
    isdata: false
    encoding: hdr-video
    allocation: uniform
    from_display_reference: !<GroupTransform>
      children:
        - !<BuiltinTransform> {style: DISPLAY - CIE-XYZ-D65_to_REC.2100-PQ}

  - !<ColorSpace>
    name: Rec.2100-HLG
    aliases: [hlg_rec2020_display, rec2100_hlg_display, Rec.2100-HLG - Display]
    family: Display
    equalitygroup: ""
    bitdepth: 32f
    description: Rec.2100-HLG 1000 nits peak display with reference white at 100 nits
    isdata: false
    encoding: hdr-video
    allocation: uniform
    from_display_reference: !<GroupTransform>
      children:
        - !<BuiltinTransform> {style: DISPLAY - CIE-XYZ-D65_to_REC.2100-HLG-1000nit}

  - !<ColorSpace>
    name: Linear sRGB EDR
    aliases: [lin_srgb_edr_display, lin_rec709_edr_display]
    family: Display
    equalitygroup: ""
    bitdepth: 32f
    description: |
      Linear Rec.709/sRGB primaries for macOS EDR display.
      No EOTF — linear-light output where 1.0 = 100 nit SDR white.
      HDR views produce values > 1.0 (e.g. HDR 1000 nit peaks at ~10.0).
    isdata: false
    encoding: display-linear
    allocation: uniform
    from_display_reference: !<GroupTransform>
      children:
        - !<ColorSpaceTransform> {src: cie_xyz_d65_interchange, dst: Linear Rec.709}

  - !<ColorSpace>
    name: Linear P3 EDR
    aliases: [lin_p3d65_edr_display]
    family: Display
    equalitygroup: ""
    bitdepth: 32f
    description: |
      Linear P3-D65 primaries for macOS EDR display.
      No EOTF — linear-light output where 1.0 = 100 nit SDR white.
      HDR views produce values > 1.0 (e.g. HDR 1000 nit peaks at ~10.0).
    isdata: false
    encoding: display-linear
    allocation: uniform
    from_display_reference: !<GroupTransform>
      children:
        - !<ColorSpaceTransform> {src: cie_xyz_d65_interchange, dst: Linear DCI-P3 D65}

  - !<ColorSpace>
    name: Filmic sRGB
    family: View Inverse
    description: |
      Filmic view transform for sRGB.
      May be used to convert backplates or matte paintings to the working space.
    from_display_reference: !<GroupTransform>
      children:
        - !<ColorSpaceTransform> {src: cie_xyz_d65_interchange, dst: Filmic Log}
